X:1
T:lLa dona e mobile
T:La dona e mobile
T:Giuseppe verdi arr:Allan James 
%%score 1 { ( 2 4 ) | 3 }
L:1/8
M:3/4
K:Bb
V:1 treble transpose=-2 nm="B♭ Clarinet" snm="B♭ Cl."
V:2 treble nm="Piano" snm="Pno."
V:4 treble 
V:3 bass 
V:1
[K:C] z6 | z6 | z6 | z6 | z6 | z6 | z6 | z6 | z6 | z6 ||"^A" e2 e2 e2 | g>f d4 | d2 d2 d2 | %13
 f>e c4 | e2 d2 c2 | c>B B4 | d2 c2 A2 | A>G G4 | e2 e2 e2 | g>f d4 | d2 d2 d2 | f>e c4 | %22
 e2 d2 c2 | c>B B4 | d2 c2 A2 | A>G G4 | d>e d2 d2 | g z d4 | e>f e2 e2 | a z e4 | g>a g2 g2 | %31
 Ta4 !fermata!g2 | (3fgf e2 d2 | c4 (G>g) | g4 G>g | g4 (G>g) | (3fgf e2 d2 | c4 z2 | (g6 | (g6) | %40
 (g6) | g4) ^g2 | b>a g>f e>d | c4 C2 ||"^B" c6 |!p! E2 E2 E2 | G>F D4 | D2 D2 D2 | F>E C4 | %49
 E2 D2 C2 | C>B, B,4 | D2 C2 A,2 | A,>G, G,4 |!mf! E2 E2 E2 | G>F D4 | D2 D2 D2 | F>E C4 | %57
 E2 D2 C2 | C>B, B,4 | D2 C2 A,2 | A,>G, G,4 | D>E D2 D2 | G z TD4 | E>F E2 E2 | A z TE4 | %65
 G>A G2 G2 | A4 !fermata!G2 | (3FGF E2 D2 | C4 z2 ||[K:D]"^C" z6 |!f! (e6 | g6) | (d6 | f6) | (a6 | %75
 e6 | g6 | a6) |!f! f2 f2 f2 | a>g e4 | e2 e2 e2 | g>f d4 | f2 e2 d2 | d>c c4 | e2 d2 B2 | B>A A4 | %86
 f2 f2 f2 | a>g e4 | e2 e2 e2 | g>f d4 | f2 e2 d2 | d>c c4 | e2 d2 B2 | B>A A4 | e>f e2 e2 | %95
 a z e4 | f>g f2 f2 | b z f4 | a>b a2 a2 | b4 !fermata!a2 | (3gag f2 e2 | d4 z2 | a6 | a6 | %104
 (3gag f2 e2 | d4 z2 | (a6 | (a6) | (a6) | a4) ^a2 | c'>b a>g f>e | !wedge!d2 z2{/f} !wedge!d2 |] %112
V:2
 z6 | [dd']2 [dd']2 [dd']2 | [ff']>[ee'] [cc']4 | [cc']2 [cc']2 [cc']2 | [ee']>[dd'] [Bb]4 | %5
 [dd']2 [cc']2 [Bb]2 |{/[cc']} [Bb]>[Aa] [Aa]4 | [cc']2 [Bb]2 [Gg]2 | !fermata!z6 | %9
 z2 [B,DF]2 [B,DF]2 || z2 [B,DF]2 [B,DF]2 | z2 [A,CF]2 [A,CF]2 | z2 [A,CF]2 [A,CF]2 | %13
 z2 [B,DF]2 [B,DF]2 | [Bd]2 [Ac]2 [GB]2 |{/c} B>A A4 | [Ac]2 [GB]2 [EG]2 |{/A} G>F F4 | %18
 z2 [B,DF]2 [B,DF]2 | z2 [A,CF]2 [A,CF]2 | z2 [A,CF]2 [A,CF]2 | z2 [B,DF]2 [B,DF]2 | d2 c2 B2 | %23
{/c} B>A A4 | c2 B2 G2 |{/A} G>F F4 | c>d c2 c2 |{/=e} [FAf] z [FAc]4 | d>e d2 d2 | %29
{/^f} [GBg] z d4 | f>g f2 f2 | [Bg]4 !fermata!z2 | [EGc] z [DFB] z [CEA] z | [DF]2 [DF]2 (f>f') | %34
 f'4 f>f' | f'4 (f>f') | (3[c'e'][d'f'][c'e'] [bd']2 [eac']2 | [db]2 z2 (f>f') | %38
 (3[c'e'][ac'][ff'] [c'e'] z (f>f') | (3[bd'][eb][ff'] [bd'] z (f>f') | %40
 (3[c'e'][ac'][ff'] (3[c'e'][ac'][ff'] (3[c'e'][ac'][ff'] | [Bfb]2 z4 | [CEGc]2 z2 [CEFA]2 | %43
 [B,DFB] z [Bdfb]2 z2 || z2 [B,DF]2 [B,DF]2 | z2 [B,DF]2 [B,DF]2 | z2 [A,CF]2 [A,CF]2 | %47
 z2 [A,CF]2 [A,CF]2 | z2 [B,DF]2 [B,DF]2 | d2 c2 B2 |{/c} B>A A4 | c2 B2 G2 |{/A} G>F F4 | %53
 z2 [B,DF]2 [B,DF]2 | z2 [A,CF]2 [A,CF]2 | z2 [A,CF]2 [A,CF]2 | z2 [B,DF]2 [B,DF]2 | d2 c2 B2 | %58
{/c} B>A A4 | c2 B2 G2 |{/A} G>F F4 | c>d c2 c2 |{/=e} [FAf] z [FAc]4 | d>e d2 d2 | %64
{/^f} [GBg] z d4 | f>g f2 f2 | [Bg]4 !fermata!z2 | [EGc] z [DFB] z [CEA] z | [DF]2 [DF]2 z2 || %69
[K:C]!f! z6 | [dd']2 [dd']2 [dd']2 | [ff']>[_e_e'] [cc']4 | z6 | [ee']2 [ee']2 [ee']2 | %74
 [gg']>[ff'] [dd']4 | [dd']2 [dd']2 [dd']2 | [ff']>[ee'] [cc']4 | z2 [CEG]2 [CEG]2 | %78
 z2 [CEG]2 [CEG]2 | z2 [B,DG]2 [B,DG]2 | z2 [B,DG]2 [B,DG]2 | z2 [CEG]2 [CEG]2 | e2 d2 c2 | %83
{/d} c>B B4 | d2 c2 A2 |{/B} A>G G4 | z2 [CEG]2 [CEG]2 | z2 [B,DG]2 [B,DG]2 | z2 [B,DG]2 [B,DG]2 | %89
 z2 [CEG]2 [CEG]2 | e2 d2 c2 |{/d} c>B B4 | d2 c2 A2 |{/B} A>G G4 | d>e d2 d2 | %95
{/^f} [GBg] z [GBd]4 | e>f e2 e2 |{/^g} [Aca] z e4 | g>a g2 g2 | [ca]4 !fermata!z2 | %100
 [FAd] z [EGc] z [DFB] z | [EG]2 [EG]2 (g>g') | g'4 g>g' | g'4 (g>g') | %104
 (3[d'f'][e'g'][d'f'] [c'e']2 [fbd']2 | [ec']2 z2 (g>g') | (3[d'f'][bd'][gg'] [d'f'] z (g>g') | %107
 (3[c'e'][fc'][gg'] [c'e'] z (g>g') | (3[d'f'][bd'][gg'] (3[d'f'][bd'][gg'] (3[d'f'][bd'][gg'] | %109
 [cgc']2 z4 | [DFAd]2 z2 [DFGB]2 | [CEGc] z [cegb]2 z2 |] %112
V:3
 [B,,B,]2 [F,B,D]2 [F,B,D]2 | [B,,B,]2 [F,B,D]2 [F,B,D]2 | [F,,F,]2 [F,A,E]2 [F,A,E]2 | %3
 [F,,F,]2 [F,A,E]2 [F,A,E]2 | [F,,F,]2 [F,B,D]2 [F,B,D]2 | [F,,F,]2 [F,B,D]2 [F,B,D]2 | %6
 [F,,F,]2 [F,CE]2 [F,CE]2 | [F,,F,]2 [F,A,E]2 [F,A,E]2 | !fermata!z6 | B,,2 z2 z2 || B,,2 z2 z2 | %11
 F,,2 F,2 F,2 | F,,2 F,2 F,2 | F,,2 z2 z2 | F,,2 [B,DF]2 [B,DF]2 | F,,2 [F,A,CF]2 [F,A,CF]2 | %16
 F,,2 [F,A,E]2 [F,A,E]2 | B,,2 [F,B,D]2 [F,B,D]2 | B,,2 z2 z2 | F,,2 F,2 F,2 | F,,2 F,2 F,2 | %21
 F,,2 z2 z2 | F,,2 [B,DF]2 [B,DF]2 | F,,2 [F,A,CF]2 [F,A,CF]2 | F,,2 [F,A,E]2 [F,A,E]2 | %25
 B,,2 [F,B,D]2 [F,B,D]2 | _F,2 [G,B,C]2 [=F,B,C]2 | F,2 [A,C]2 [A,C]2 | _G,2 [A,CD]2 [A,CD]2 | %29
 G,2 [B,D]2 [B,D]2 | A,2 [CEF]2 [CEF]2 | [B,D]4 !fermata!z2 | E, z F, z F,, z | %33
 [B,,B,]2 [B,,B,]2 z2 | [F,A,C]2 [F,A,C]2 z2 | [B,D]2 [B,D]2 z2 | [E,G,C] z [F,B,D] z [F,,F,] z | %37
 [B,,F,]2 [F,B,D]2 [F,B,D]2 | [F,,F,]2 [F,A,C]2 [F,A,C]2 | [F,,F,]2 [F,B,D]2 [F,B,D]2 | %40
 [F,,F,]2 [F,A,C]2 [F,A,C]2 | [D,,B,,D,]2 z4 | [E,,E,]2 z2 [F,,F,] z | %43
 [B,,,B,,] z [B,,,D,,F,,B,,]2 z2 ||!pp! B,,2 z2 z2 | B,,2 z2 z2 | F,,2 F,2 F,2 | F,,2 F,2 F,2 | %48
 F,,2 z2 z2 | F,,2 [B,DF]2 [B,DF]2 | F,,2 [F,A,CF]2 [F,A,CF]2 | F,,2 [F,A,E]2 [F,A,E]2 | %52
 B,,2 [F,B,D]2 [F,B,D]2 | B,,2 z2 z2 | F,,2 F,2 F,2 | F,,2 F,2 F,2 | F,,2 z2 z2 | %57
 F,,2 [B,DF]2 [B,DF]2 | F,,2 [F,A,CF]2 [F,A,CF]2 | F,,2 [F,A,E]2 [F,A,E]2 | %60
 B,,2 [F,B,D]2 [F,B,D]2 | _F,2 [G,B,C]2 [=F,B,C]2 | F,2 [A,C]2 [A,C]2 | _G,2 [A,CD]2 [A,CD]2 | %64
 G,2 [B,D]2 [B,D]2 | A,2 [CEF]2 [CEF]2 | [B,D]4 !fermata!z2 | E, z F, z F,, z | %68
 [B,,B,]2 [B,,B,]2 z2 ||[K:C] [_B,,_B,]2 [F,B,D]2 [F,B,D]2 | [_B,,_B,]2 [F,B,D]2 [F,B,D]2 | %71
 [F,,F,]2 [F,A,_E]2 [F,A,E]2 | [C,C]2 [G,CE]2 [G,CE]2 | [C,C]2 [G,CE]2 [G,CE]2 | %74
 [G,,G,]2 [G,B,F]2 [G,B,F]2 | [G,,G,]2 [G,B,F]2 [G,B,F]2 | [G,,G,]2 [G,CE]2 [G,CE]2 | C,2 z2 z2 | %78
 C,2 z2 z2 | G,,2 G,2 G,2 | G,,2 G,2 G,2 | G,,2 z2 z2 | G,,2 [CEG]2 [CEG]2 | %83
 G,,2 [G,B,DG]2 [G,B,DG]2 | G,,2 [G,B,F]2 [G,B,F]2 | C,2 [G,CE]2 [G,CE]2 | C,2 z2 z2 | %87
 G,,2 G,2 G,2 | G,,2 G,2 G,2 | G,,2 z2 z2 | G,,2 [CEG]2 [CEG]2 | G,,2 [G,B,DG]2 [G,B,DG]2 | %92
 G,,2 [G,B,F]2 [G,B,F]2 | C,2 [G,CE]2 [G,CE]2 | ^F,2 [A,CD]2 [G,CD]2 | G,2 [B,D]2 [B,D]2 | %96
 ^G,2 [B,DE]2 [B,DE]2 | A,2 [CE]2 [CE]2 | B,2 [DFG]2 [DFG]2 | [CE]4 !fermata!z2 | F, z G, z G,, z | %101
 [C,C]2 [C,C]2 z2 | [G,B,D]2 [G,B,D]2 z2 | [CE]2 [CE]2 z2 | [F,A,D] z [G,CE] z [G,,G,] z | %105
 [C,G,]2 [G,CE]2 [G,CE]2 | [G,,G,]2 [G,B,D]2 [G,B,D]2 | [G,,G,]2 [G,CE]2 [G,CE]2 | %108
 [G,,G,]2 [G,B,D]2 [G,B,D]2 | [E,,C,E,]2 z4 | [F,,F,]2 z2 [G,,G,] z | %111
 [C,,C,] z [C,,E,,G,,C,]2 z2 |] %112
V:4
 x6 | x6 | x6 | x6 | x6 | x6 | x6 | x6 | x6 | x6 || x6 | x6 | x6 | x6 | x6 | x6 | x6 | x6 | x6 | %19
 x6 | x6 | x6 | x6 | x6 | x6 | x6 | x6 | x6 | x6 | x6 | x6 | x6 | x6 | B4 z2 | z6 | x6 | x6 | x6 | %38
 x6 | x6 | x6 | x6 | x6 | x6 || x6 | x6 | x6 | x6 | x6 | x6 | x6 | x6 | x6 | x6 | x6 | x6 | x6 | %57
 x6 | x6 | x6 | x6 | x6 | x6 | x6 | x6 | x6 | x6 | x6 | B4 x2 ||[K:C] x6 | x6 | x6 | x6 | x6 | x6 | %75
 x6 | x6 | x6 | x6 | x6 | x6 | x6 | x6 | x6 | x6 | x6 | x6 | x6 | x6 | x6 | x6 | x6 | x6 | x6 | %94
 x6 | x6 | x6 | x6 | x6 | x6 | x6 | c4 z2 | z6 | x6 | x6 | x6 | x6 | x6 | x6 | x6 | x6 | x6 |] %112

